src/assets/icons/filters/categories/baby_car_selected.svg

<svg width="48" height="48" viewBox="0 0 48 48" fill="none" xmlns="http://www.w3.org/2000/svg">
<path fill-rule="evenodd" clip-rule="evenodd" d="M48 19.5007C48 8.74864 39.2514 0 28.4978 0C27.3046 0.00124489 26.1605 0.475805 25.3168 1.31955C24.4731 2.16329 23.9985 3.30728 23.9973 4.50051V21.0008H14.6232C14.4272 21.0008 14.2783 20.8378 14.1999 20.6842C12.6527 17.5459 9.16015 15.9093 5.72246 16.7072C4.37776 17.0241 3.14816 17.7099 2.17197 18.6875C1.19577 19.6651 0.511719 20.8956 0.196751 22.2408C-0.627794 25.8149 1.2 29.4469 4.54207 30.8797C4.67845 30.9393 4.76624 31.0333 4.77878 31.0929C5.75695 35.5667 9.24637 39.028 13.5478 40.13C13.0628 40.5478 12.6733 41.065 12.4056 41.6464C12.1378 42.2279 11.9981 42.8601 11.9959 43.5002C11.9971 44.6932 12.4715 45.837 13.3149 46.6807C14.1583 47.5244 15.3019 47.9991 16.4948 48.0008C17.6881 47.9999 18.8322 47.5258 19.6763 46.6823C20.5203 45.8389 20.9953 44.695 20.9969 43.5018C20.9932 42.3909 20.5757 41.3212 19.8259 40.5015H32.6691C31.9196 41.3214 31.5021 42.391 31.4981 43.5018C31.4998 44.6948 31.9745 45.8384 32.8182 46.6818C33.6619 47.5252 34.8057 47.9995 35.9986 48.0008C37.1916 47.9995 38.3353 47.5252 39.179 46.6818C40.0227 45.8384 40.4975 44.6948 40.4991 43.5018C40.4991 42.1506 39.8878 40.9529 38.9441 40.1268C44.1391 38.8163 48 34.1199 48 28.5252V26.978C48 25.4104 47.3792 23.9918 46.3885 22.9242C46.891 22.506 47.2958 21.9828 47.5742 21.3913C47.8526 20.7998 47.9979 20.1544 48 19.5007V19.5007Z" fill="#13C1AC" fill-opacity="0.7"/>
<path opacity="0.4" fill-rule="evenodd" clip-rule="evenodd" d="M28.4977 3.00193C30.9902 3.00193 33.3494 3.5741 35.4703 4.56951L26.9976 17.4816V4.5021C26.9984 4.10434 27.1567 3.72309 27.4378 3.44168C27.7189 3.16028 28.1 3.00161 28.4977 3.00037V3.00193ZM44.9996 19.5007C44.9996 20.3284 44.3255 21.0008 43.4994 21.0008H31.8351L44.2973 14.7509C44.7623 16.2913 44.9989 17.8916 44.9996 19.5007Z" fill="white"/>
<path fill-rule="evenodd" clip-rule="evenodd" d="M44.9996 28.5246C44.9967 30.9045 44.0499 33.1862 42.3669 34.8689C40.6839 36.5516 38.4021 37.4981 36.0221 37.5005H16.4713C12.289 37.5005 8.60209 34.5378 7.71014 30.4527C7.48754 29.4307 6.74451 28.5575 5.72245 28.1217C3.6846 27.2486 2.61395 25.1057 3.12027 22.9111C3.35845 21.9292 3.92244 21.057 4.72018 20.4369C5.51792 19.8168 6.5023 19.4855 7.51262 19.4969C9.40782 19.4969 10.8484 20.671 11.5099 22.0113C12.1135 23.2387 13.3064 24.0006 14.6216 24.0006H42.0228C43.6656 24.0006 45.0012 25.3377 45.0012 26.979V28.5246H44.9996ZM35.9986 44.9998C35.6155 44.9784 35.2551 44.811 34.9914 44.5322C34.7278 44.2534 34.5809 43.8842 34.5809 43.5004C34.5809 43.1167 34.7278 42.7475 34.9914 42.4687C35.2551 42.1898 35.6155 42.0225 35.9986 42.0011C36.3846 42.0187 36.749 42.1845 37.0159 42.4639C37.2828 42.7433 37.4318 43.1148 37.4318 43.5012C37.4318 43.8876 37.2828 44.2592 37.0159 44.5386C36.749 44.818 36.3846 44.9837 35.9986 45.0014V44.9998ZM16.4964 44.9998C16.1133 44.9784 15.7529 44.811 15.4892 44.5322C15.2256 44.2534 15.0787 43.8842 15.0787 43.5004C15.0787 43.1167 15.2256 42.7475 15.4892 42.4687C15.7529 42.1898 16.1133 42.0225 16.4964 42.0011C16.8824 42.0187 17.2468 42.1845 17.5137 42.4639C17.7806 42.7433 17.9295 43.1148 17.9295 43.5012C17.9295 43.8876 17.7806 44.2592 17.5137 44.5386C17.2468 44.818 16.8824 44.9837 16.4964 45.0014V44.9998ZM28.4978 2.99975C30.9902 2.99975 33.3494 3.57348 35.4704 4.56733L26.9976 17.481V4.50149C26.9984 4.10373 27.1567 3.72247 27.4378 3.44107C27.7189 3.15966 28.1 3.00099 28.4978 2.99975ZM43.1609 11.9632L29.8114 18.6583L38.0647 6.08161C40.2043 7.61148 41.9503 9.62721 43.1593 11.9632H43.1609ZM44.9996 19.5001C44.9996 20.3277 44.3256 21.0002 43.4995 21.0002H31.8351L44.2974 14.7503C44.7624 16.2907 44.999 17.891 44.9996 19.5001V19.5001ZM48 19.5001C48 20.878 47.3651 22.0975 46.3885 22.9236C47.4203 24.0217 47.9963 25.4707 48 26.9774V28.5246C48 34.1208 44.1391 38.8157 38.9441 40.1247C39.8894 40.9523 40.4991 42.15 40.4991 43.5012C40.4975 44.6939 40.023 45.8373 39.1796 46.6806C38.3362 47.524 37.1929 47.9985 36.0002 48.0002C34.807 47.9993 33.6628 47.5252 32.8188 46.6817C31.9747 45.8383 31.4998 44.6945 31.4981 43.5012C31.4981 42.3444 31.9496 41.2988 32.6691 40.5009H19.8259C20.5757 41.3206 20.9932 42.3903 20.9969 43.5012C20.9953 44.6942 20.5205 45.8378 19.6768 46.6812C18.8331 47.5246 17.6894 47.9989 16.4964 48.0002C15.3034 47.9989 14.1597 47.5246 13.316 46.6812C12.4723 45.8378 11.9976 44.6942 11.9959 43.5012C11.9959 42.1531 12.6041 40.9539 13.5478 40.1294C9.24636 39.0274 5.75694 35.5662 4.77877 31.0923C4.76623 31.0327 4.67845 30.9387 4.54363 30.8791C1.19999 29.4463 -0.627801 25.8143 0.196744 22.2402C0.511712 20.895 1.19577 19.6645 2.17196 18.6869C3.14815 17.7093 4.37776 17.0235 5.72245 16.7066C9.16015 15.9087 12.6511 17.5453 14.2015 20.6836C14.2767 20.8372 14.4272 21.0002 14.6216 21.0002H23.9957V4.49992C23.9973 3.30669 24.4723 2.16286 25.3163 1.31941C26.1604 0.475966 27.3045 0.00180577 28.4978 0.000976562C39.2513 0.000976562 48 8.74805 48 19.5016V19.5001ZM6.42943 22.9362C6.15981 23.2215 5.99521 23.6102 5.99521 24.0021C5.99521 24.4066 6.15981 24.7812 6.42943 25.0665C6.71473 25.3361 7.10349 25.5007 7.49538 25.5007C7.88414 25.5007 8.27447 25.3361 8.56133 25.0665C8.83763 24.7802 8.99312 24.3985 8.99555 24.0006C8.99555 23.6118 8.82939 23.2215 8.55977 22.9346C8.00484 22.3813 6.98435 22.3813 6.42943 22.9346V22.9362Z" fill="#0F9989"/>
</svg>

<svg width="48" height="48" viewBox="0 0 48 48" fill="none" xmlns="http://www.w3.org/2000/svg"><path fill-rule="evenodd" clip-rule="evenodd" d="M48 19.5C48 8.75 39.251 0 28.498 0a4.505 4.505 0 00-4.5 4.5V21h-9.375c-.196 0-.345-.162-.423-.316-1.547-3.138-5.04-4.775-8.478-3.977a7.424 7.424 0 00-5.525 5.534c-.825 3.574 1.003 7.206 4.345 8.639.136.06.224.153.237.213.978 4.474 4.467 7.935 8.769 9.037a4.468 4.468 0 00-1.552 3.37 4.505 4.505 0 004.499 4.5 4.506 4.506 0 004.502-4.498 4.467 4.467 0 00-1.171-3h12.843a4.47 4.47 0 00-1.17 3 4.505 4.505 0 004.5 4.499 4.505 4.505 0 004.5-4.5c0-1.35-.611-2.548-1.555-3.374C44.14 38.817 48 34.12 48 28.525v-1.547c0-1.568-.62-2.986-1.611-4.054A4.472 4.472 0 0048 19.501z" fill="#13C1AC" fill-opacity=".7"/><path opacity=".4" fill-rule="evenodd" clip-rule="evenodd" d="M28.498 3.002c2.492 0 4.851.572 6.972 1.568l-8.472 12.912V4.502A1.505 1.505 0 0128.498 3v.002zM45 19.5c0 .827-.675 1.5-1.5 1.5H31.834l12.462-6.25c.465 1.54.702 3.14.703 4.75z" fill="#fff"/><path fill-rule="evenodd" clip-rule="evenodd" d="M45 28.525a8.987 8.987 0 01-8.978 8.976h-19.55c-4.183 0-7.87-2.963-8.762-7.048-.222-1.022-.965-1.895-1.988-2.331-2.037-.873-3.108-3.016-2.602-5.21a4.468 4.468 0 014.393-3.415c1.895 0 3.335 1.174 3.997 2.514.604 1.228 1.796 1.99 3.112 1.99h27.4a2.982 2.982 0 012.98 2.978v1.546H45zM35.999 45a1.502 1.502 0 010-2.999 1.502 1.502 0 010 3V45zm-19.503 0a1.502 1.502 0 010-2.999 1.502 1.502 0 010 3V45zM28.498 3c2.492 0 4.851.573 6.972 1.567l-8.472 12.914V4.501A1.505 1.505 0 0128.498 3zm14.663 8.963l-13.35 6.695 8.254-12.576a16.624 16.624 0 015.094 5.881h.002zM45 19.5c0 .828-.674 1.5-1.5 1.5H31.834l12.462-6.25c.465 1.54.702 3.141.703 4.75zm3 0c0 1.378-.635 2.598-1.611 3.424A5.941 5.941 0 0148 26.977v1.548c0 5.596-3.86 10.29-9.056 11.6.945.827 1.555 2.025 1.555 3.376a4.505 4.505 0 01-4.499 4.5 4.505 4.505 0 01-4.502-4.5c0-1.157.452-2.202 1.171-3H19.826c.75.82 1.167 1.89 1.17 3a4.505 4.505 0 01-4.5 4.5 4.505 4.505 0 01-4.5-4.5c0-1.348.608-2.547 1.552-3.372-4.302-1.102-7.791-4.563-8.77-9.037-.012-.06-.1-.153-.234-.213C1.2 29.446-.628 25.814.197 22.24a7.424 7.424 0 015.525-5.533c3.438-.798 6.93.838 8.48 3.977.075.153.225.316.42.316h9.374V4.5A4.505 4.505 0 0128.498 0C39.25.001 48 8.748 48 19.501zM6.43 22.936c-.27.285-.435.674-.435 1.066 0 .405.165.78.434 1.065.286.27.674.434 1.066.434.39 0 .78-.165 1.066-.434.277-.287.432-.669.435-1.066 0-.39-.167-.78-.436-1.066-.555-.554-1.576-.554-2.13 0v.001z" fill="#0F9989"/></svg>
